Numix/128x128/categories/applications-geography.svg

<?xml version="1.0" encoding="UTF-8" standalone="no"?>
<svg
   xmlns:dc="http://purl.org/dc/elements/1.1/"
   xmlns:cc="http://creativecommons.org/ns#"
   xmlns:rdf="http://www.w3.org/1999/02/22-rdf-syntax-ns#"
   xmlns:svg="http://www.w3.org/2000/svg"
   xmlns="http://www.w3.org/2000/svg"
   xmlns:sodipodi="http://sodipodi.sourceforge.net/DTD/sodipodi-0.dtd"
   xmlns:inkscape="http://www.inkscape.org/namespaces/inkscape"
   width="128"
   height="128"
   viewBox="0 0 128 128"
   id="svg2"
   version="1.1"
   inkscape:version="0.91 r"
   sodipodi:docname="applications-geography.svg">
  <metadata
     id="metadata22">
    <rdf:RDF>
      <cc:Work
         rdf:about="">
        <dc:format>image/svg+xml</dc:format>
        <dc:type
           rdf:resource="http://purl.org/dc/dcmitype/StillImage" />
      </cc:Work>
    </rdf:RDF>
  </metadata>
  <sodipodi:namedview
     pagecolor="#ffffff"
     bordercolor="#666666"
     borderopacity="1"
     objecttolerance="10"
     gridtolerance="10"
     guidetolerance="10"
     inkscape:pageopacity="0"
     inkscape:pageshadow="2"
     inkscape:window-width="1920"
     inkscape:window-height="1056"
     id="namedview20"
     showgrid="false"
     inkscape:zoom="1.84375"
     inkscape:cx="64"
     inkscape:cy="64"
     inkscape:window-x="0"
     inkscape:window-y="24"
     inkscape:window-maximized="1"
     inkscape:current-layer="svg2" />
  <defs
     id="defs4">
    <clipPath
       id="clip1">
      <path
         d="M 18 18 L 109 18 L 109 109 L 18 109 Z "
         id="path7" />
    </clipPath>
    <clipPath
       id="clip2">
      <path
         d="M 63.332031 108.046875 C 88.164062 108.046875 108.320312 87.8125 108.320312 62.996094 C 108.320312 38.332031 88.164062 18.097656 63.332031 18.097656 C 38.671875 18.097656 18.347656 38.332031 18.347656 62.996094 C 18.347656 87.8125 38.671875 108.046875 63.332031 108.046875 Z "
         id="path10" />
    </clipPath>
  </defs>
  <path
     style="fill:#78b2a3"
     d="M 63.986736,16 C 51.253937,16 39.229779,21.003356 30.134922,30.088996 21.024908,39.170846 16,51.186481 16,63.922296 16,90.432504 37.524494,112 63.986736,112 90.464137,112 112,90.432504 112,63.922296 112,37.50306 90.464136,16 63.986736,16 Z m 0,1.971019 c 25.37844,0 46.031344,20.619892 46.031344,45.951277 0,25.422357 -20.652905,46.106684 -46.031345,46.106684 -25.363281,0 -46.004815,-20.684327 -46.004815,-46.106684 0,-12.205156 4.812694,-23.712876 13.539967,-32.430845 8.731064,-8.706597 20.262584,-13.520432 32.464849,-13.520432 z"
     id="path12"
     inkscape:connector-curvature="0" />
  <g
     style="clip-rule:nonzero"
     id="g14"
     clip-path="url(#clip1)"
     transform="matrix(0.97011803,0,0,0.97034787,2.5585592,2.5440037)">
    <g
       id="g16"
       clip-path="url(#clip2)">
      <path
         style="fill:#78b2a3"
         d="m 48.085938,22.226562 c -0.234376,0 -0.480469,0.08984 -0.730469,0.234376 0.585937,-0.183594 0.875,-0.234376 0.730469,-0.234376 m 14.777343,2.878907 0.144531,-2.164063 -2.277343,0.144532 0.296875,2.019531 1.835937,0 M 37.109375,62.472656 c -0.457031,-0.429687 -0.15625,-2.304687 -0.15625,-2.304687 0,0 -6.847656,-3.605469 -14.324219,-5.78125 -0.910156,-0.257813 -0.441406,-2.160157 0.457032,-2.875 l -0.300782,-2.019531 c -0.15625,-1.015626 1.523438,-5.925782 3.203125,-6.355469 1.679688,-0.429688 -0.15625,2.890625 -0.15625,2.890625 l -1.664062,1.003906 c 0,0 1.976562,2.316406 2.433593,2.316406 0.457032,0 1.222657,-1.15625 1.222657,-1.15625 l -2.132813,-1.445312 1.976563,-0.859375 0.132812,-0.769531 0.324219,-0.105469 3.28125,-4.960938 c 2.265625,-0.9375 5.050781,-2.082031 5.402344,-2.25 0.613281,-0.289062 4.882812,-2.734375 5.640625,-3.308593 0.765625,-0.585938 2.433593,-0.429688 3.046875,-0.429688 0.609375,0 1.523437,-0.300781 1.679687,-1.886719 0.140625,-1.589843 0.753907,-1.875 1.210938,-1.433593 0.46875,0.417968 -0.457031,1.144531 0.609375,1.433593 1.070312,0.285157 1.980468,1.015625 2.75,0.285157 0.558594,-0.519532 -0.195313,-1.121094 -0.691406,-1.574219 l 8.464843,0 0.910157,-2.605469 -1.980469,-0.285156 -7.316407,-0.730469 0,-0.859375 -0.585937,0.105469 c 0.792969,-4.363281 5.496094,-3.632813 1.953125,-6.160157 -0.207031,-0.15625 -3.308594,4.882813 -4.101562,4.777344 -1.417969,-0.179687 -3.269532,-0.195312 -3.660157,0.261719 -0.519531,0.625 1.160157,-2.109375 2.617188,-2.929687 -1.730469,0.507812 -4.84375,-1.066407 -10.441407,2.890624 -1.902343,1.339844 -6.652343,6.769532 -8.621093,8.855469 -8.265625,9.765625 -8.929688,18.109375 -8.929688,18.476563 0,0.726562 1.757813,1.132812 1.898438,2.003906 0.15625,0.859375 -2.890625,3.75 -2.890625,5.183594 0,0.664062 -1.523438,7.863281 1.824218,16.875 2.96875,8.554687 8.722657,16.09375 9.464844,16.5625 L 31.769531,92.1875 c 0,0 -3.5,-6.199219 -3.644531,-6.785156 -0.15625,-0.570313 3.957031,-8.945313 5.9375,-8.644532 1.980469,0.273438 1.523438,0.859376 2.746094,0.144532 1.210937,-0.71875 1.980468,-6.640625 3.347656,-7.214844 1.378906,-0.585938 2.890625,-1.300781 2.746094,-2.746094 -0.15625,-1.445312 -5.335938,-4.039062 -5.792969,-4.46875 m 33.074219,-42.40625 -4.117188,-1.445312 0.757813,2.304687 3.359375,-0.859375 m -15.390625,5.324219 c 0.453125,0 9.59375,-6.054687 8.683593,-6.199219 -0.910156,-0.140625 -1.066406,0 -3.515624,-0.285156 -2.433594,-0.285156 -5.027344,3.464844 -5.636719,4.035156 -0.601563,0.585938 -0.40625,2.449219 0.46875,2.449219 m 41.9375,43.503906 1.1875,-1.523437 -1.1875,-0.417969 -0.871094,1.105469 -1.042969,1.523437 L 95.703125,70 96.730469,68.894531 m 5.171871,5.011719 -0.30078,-2.226562 -1.91406,0 -0.144531,1.667968 -1.769531,-0.273437 -0.441407,-1.8125 -0.886719,-0.558594 -1.042968,1.25 -1.027344,-0.273437 -0.300781,0.964843 1.1875,0.285157 0,9.035156 4.179687,1.003906 c -0.105468,0.167969 -0.171875,0.3125 -0.195312,0.378906 -0.300782,0.976563 1.171876,1.40625 2.210936,0.976563 0.37891,-0.144531 2.78906,-1.082031 3.54297,-2.890625 1.06641,-2.527344 1.75781,-6.171875 1.94141,-7.34375 l -0.46875,-1.015625 -2.95703,1.105469 -1.62891,-0.273438 0.0156,0 M 100.41797,36.902344 C 93.671875,26.679688 77.460938,19.988281 77.460938,19.988281 l -4.167969,2.1875 -0.597657,-0.964843 -1.472656,-0.558594 0,1.25 1.328125,1.117187 -0.882812,0.417969 -3.386719,0.273438 -7.667969,4.167968 0.726563,3.34375 -0.882813,0.273438 -0.429687,0.691406 2.5,3.75 0.140625,1.261719 -2.054688,0.417969 0,2.5 -1.1875,0.273437 0.15625,1.953125 -10.039062,6.953125 0.300781,3.878906 C 50.585938,54.152344 56.328125,60 56.328125,60 c 0,0 6.640625,0.273438 8.113281,-0.558594 1.484375,-0.835937 0.441406,0.832032 0.882813,1.25 0.445312,0.414063 0.601562,3.332032 1.03125,3.617188 0.453125,0.273437 0,1.941406 0.597656,2.5 0.585937,0.5625 0.585937,7.226562 0.585937,7.226562 0,0 3.542969,5.976563 3.542969,7.515625 0,1.523438 -0.15625,1.378907 2.65625,1.25 2.796875,-0.144531 3.382813,-1.25 3.984375,-1.667969 0.585938,-0.417968 0.585938,-1.394531 1.171875,-2.226562 0.597657,-0.832031 1.625,-4.023438 2.953125,-5.144531 1.328125,-1.117188 4.871094,-1.953125 5.15625,-3.890625 0.300782,-1.953125 1.628906,-3.476563 1.628906,-3.476563 L 95,59.648438 l -0.167969,0.910156 -0.15625,3.476562 1.925781,-0.703125 -0.15625,-3.75 -0.675781,-0.726562 0.08984,-0.105469 c 0,0 -0.441406,-0.832031 -1.027344,-0.832031 -0.585937,0 -4.128906,0.832031 -4.726562,0.6875 -0.585938,-0.140625 -3.085938,-6.808594 -3.53125,-7.082031 -0.453125,-0.285157 -3.253907,-4.871094 -3.253907,-4.871094 0,0 6.496094,7.789062 7.527344,10.847656 0.597656,1.769531 2.851563,0.117188 4.6875,-1.746094 l 0.480469,1.1875 1.171875,-0.273437 -0.144531,-1.394531 1.328125,0 0,2.082031 -0.441406,1.121093 -0.15625,1.796876 1.183593,1.121093 0.585938,-0.976562 1.914065,-1.8125 2.21485,-1.105469 0.58593,1.105469 0.30078,1.539062 -0.58593,1.664063 -1.1875,0.976562 -0.58594,2.5 0,1.25 -1.32813,-0.832031 -0.14062,-2.644531 -1.929693,0.144531 -0.871093,2.355469 1.328124,1.953125 3.085942,0.417969 2.51172,-2.371094 0.28906,-4.570313 1.11719,-1.484375 c 0.73047,1.875 1.25,3.828125 1.25,5.652344 0,1.992188 1.57812,-1.015625 0.80859,-7.097656 0,-0.01172 -1.22265,-14.464844 -7.90234,-21.15625 z m -29.492189,5.988281 -7.957031,-0.273437 3.386719,-2.785157 1.769531,0 2.800781,1.953125 0,1.105469 m 9.738281,-0.964844 0,1.25 -3.386718,0 0.289062,0.835938 -2.058594,0.273437 -0.15625,0.6875 -1.472656,-0.273437 -2.65625,-0.546875 0.445313,-0.703125 0.441406,-0.832031 1.484375,-1.535157 0.585938,1.117188 2.214843,-0.140625 1.171875,-1.25 4.582032,0.832031 -1.484376,0.285156 m 0.285157,-1.808593 -1.757813,0.273437 -0.296875,-1.25 2.210938,-0.273437 0.300781,-1.261719 1.613281,1.679687 -2.070312,0.832032 m 8.570312,43.230468 -1.042969,0.84375 0.144532,2.085938 1.328125,0 0,-1.8125 1.183593,-1.535156 0,-3.191407 -0.742187,-0.140625 -0.871094,3.75 m -9.882812,-4.167968 c 0,0 -1.042969,0.273437 0.140625,0.703124 1.171875,0.417969 5.898437,-6.808593 5.898437,-6.808593 l -3.984375,2.5 -2.054687,3.605469 m -8.035157,26.652342 -0.886718,-0.84375 -1.757813,-0.27344 -0.296875,0.84375 -2.359375,-0.28515 -0.15625,-1.1211 -1.769531,0 -1.914062,1.1211 -3.386719,0 -0.296875,-0.83203 -5.445313,-0.57422 -0.882812,0.84765 -2.214844,-0.5625 -0.300781,-1.95312 -1.027344,-0.15625 -1.183594,2.10937 L 43.75,104.01172 c 0.714844,0.33594 6.652344,3.87891 15.769531,4.62109 12.082031,0.97657 17.835938,-1.95312 17.835938,-1.95312 L 76.914062,106.25 Z"
         id="path18"
         inkscape:connector-curvature="0" />
    </g>
  </g>
</svg>

<svg width="128" xmlns="http://www.w3.org/2000/svg" height="128" viewBox="0 0 128 128" xmlns:xlink="http://www.w3.org/1999/xlink">
<defs>
<clipPath id="clip1">
<path d="M 18 18 L 109 18 L 109 109 L 18 109 Z "/>
</clipPath>
<clipPath id="clip2">
<path d="M 63.332031 108.046875 C 88.164062 108.046875 108.320312 87.8125 108.320312 62.996094 C 108.320312 38.332031 88.164062 18.097656 63.332031 18.097656 C 38.671875 18.097656 18.347656 38.332031 18.347656 62.996094 C 18.347656 87.8125 38.671875 108.046875 63.332031 108.046875 Z "/>
</clipPath>
</defs>
<path style="fill:#78b2a3" d="M 63.320312 13.867188 C 50.195312 13.867188 37.800781 19.023438 28.425781 28.386719 C 19.035156 37.746094 13.855469 50.128906 13.855469 63.253906 C 13.855469 90.574219 36.042969 112.800781 63.320312 112.800781 C 90.613281 112.800781 112.8125 90.574219 112.8125 63.253906 C 112.8125 36.027344 90.613281 13.867188 63.320312 13.867188 Z M 63.320312 15.898438 C 89.480469 15.898438 110.769531 37.148438 110.769531 63.253906 C 110.769531 89.453125 89.480469 110.769531 63.320312 110.769531 C 37.175781 110.769531 15.898438 89.453125 15.898438 63.253906 C 15.898438 50.675781 20.859375 38.816406 29.855469 29.832031 C 38.855469 20.859375 50.742188 15.898438 63.320312 15.898438 Z "/>
<g style="clip-rule:nonzero;clip-path:url(#clip1)">
<g style="clip-path:url(#clip2)">
<path style="fill:#78b2a3" d="M 48.085938 22.226562 C 47.851562 22.226562 47.605469 22.316406 47.355469 22.460938 C 47.941406 22.277344 48.230469 22.226562 48.085938 22.226562 M 62.863281 25.105469 L 63.007812 22.941406 L 60.730469 23.085938 L 61.027344 25.105469 L 62.863281 25.105469 M 37.109375 62.472656 C 36.652344 62.042969 36.953125 60.167969 36.953125 60.167969 C 36.953125 60.167969 30.105469 56.5625 22.628906 54.386719 C 21.71875 54.128906 22.1875 52.226562 23.085938 51.511719 L 22.785156 49.492188 C 22.628906 48.476562 24.308594 43.566406 25.988281 43.136719 C 27.667969 42.707031 25.832031 46.027344 25.832031 46.027344 L 24.167969 47.03125 C 24.167969 47.03125 26.144531 49.347656 26.601562 49.347656 C 27.058594 49.347656 27.824219 48.191406 27.824219 48.191406 L 25.691406 46.746094 L 27.667969 45.886719 L 27.800781 45.117188 L 28.125 45.011719 L 31.40625 40.050781 C 33.671875 39.113281 36.457031 37.96875 36.808594 37.800781 C 37.421875 37.511719 41.691406 35.066406 42.449219 34.492188 C 43.214844 33.90625 44.882812 34.0625 45.496094 34.0625 C 46.105469 34.0625 47.019531 33.761719 47.175781 32.175781 C 47.316406 30.585938 47.929688 30.300781 48.386719 30.742188 C 48.855469 31.160156 47.929688 31.886719 48.996094 32.175781 C 50.066406 32.460938 50.976562 33.191406 51.746094 32.460938 C 52.304688 31.941406 51.550781 31.339844 51.054688 30.886719 L 59.519531 30.886719 L 60.429688 28.28125 L 58.449219 27.996094 L 51.132812 27.265625 L 51.132812 26.40625 L 50.546875 26.511719 C 51.339844 22.148438 56.042969 22.878906 52.5 20.351562 C 52.292969 20.195312 49.191406 25.234375 48.398438 25.128906 C 46.980469 24.949219 45.128906 24.933594 44.738281 25.390625 C 44.21875 26.015625 45.898438 23.28125 47.355469 22.460938 C 45.625 22.96875 42.511719 21.394531 36.914062 25.351562 C 35.011719 26.691406 30.261719 32.121094 28.292969 34.207031 C 20.027344 43.972656 19.363281 52.316406 19.363281 52.683594 C 19.363281 53.410156 21.121094 53.816406 21.261719 54.6875 C 21.417969 55.546875 18.371094 58.4375 18.371094 59.871094 C 18.371094 60.535156 16.847656 67.734375 20.195312 76.746094 C 23.164062 85.300781 28.917969 92.839844 29.660156 93.308594 L 31.769531 92.1875 C 31.769531 92.1875 28.269531 85.988281 28.125 85.402344 C 27.96875 84.832031 32.082031 76.457031 34.0625 76.757812 C 36.042969 77.03125 35.585938 77.617188 36.808594 76.902344 C 38.019531 76.183594 38.789062 70.261719 40.15625 69.6875 C 41.535156 69.101562 43.046875 68.386719 42.902344 66.941406 C 42.746094 65.496094 37.566406 62.902344 37.109375 62.472656 M 70.183594 20.066406 L 66.066406 18.621094 L 66.824219 20.925781 L 70.183594 20.066406 M 54.792969 25.390625 C 55.246094 25.390625 64.386719 19.335938 63.476562 19.191406 C 62.566406 19.050781 62.410156 19.191406 59.960938 18.90625 C 57.527344 18.621094 54.933594 22.371094 54.324219 22.941406 C 53.722656 23.527344 53.917969 25.390625 54.792969 25.390625 M 96.730469 68.894531 L 97.917969 67.371094 L 96.730469 66.953125 L 95.859375 68.058594 L 94.816406 69.582031 L 95.703125 70 L 96.730469 68.894531 M 101.902344 73.90625 L 101.601562 71.679688 L 99.6875 71.679688 L 99.542969 73.347656 L 97.773438 73.074219 L 97.332031 71.261719 L 96.445312 70.703125 L 95.402344 71.953125 L 94.375 71.679688 L 94.074219 72.644531 L 95.261719 72.929688 L 95.261719 81.964844 L 99.441406 82.96875 C 99.335938 83.136719 99.269531 83.28125 99.246094 83.347656 C 98.945312 84.324219 100.417969 84.753906 101.457031 84.324219 C 101.835938 84.179688 104.246094 83.242188 105 81.433594 C 106.066406 78.90625 106.757812 75.261719 106.941406 74.089844 L 106.472656 73.074219 L 103.515625 74.179688 L 101.886719 73.90625 L 101.902344 73.90625 M 100.417969 36.902344 C 93.671875 26.679688 77.460938 19.988281 77.460938 19.988281 L 73.292969 22.175781 L 72.695312 21.210938 L 71.222656 20.652344 L 71.222656 21.902344 L 72.550781 23.019531 L 71.667969 23.4375 L 68.28125 23.710938 L 60.613281 27.878906 L 61.339844 31.222656 L 60.457031 31.496094 L 60.027344 32.1875 L 62.527344 35.9375 L 62.667969 37.199219 L 60.613281 37.617188 L 60.613281 40.117188 L 59.425781 40.390625 L 59.582031 42.34375 L 49.542969 49.296875 L 49.84375 53.175781 C 50.585938 54.152344 56.328125 60 56.328125 60 C 56.328125 60 62.96875 60.273438 64.441406 59.441406 C 65.925781 58.605469 64.882812 60.273438 65.324219 60.691406 C 65.769531 61.105469 65.925781 64.023438 66.355469 64.308594 C 66.808594 64.582031 66.355469 66.25 66.953125 66.808594 C 67.539062 67.371094 67.539062 74.035156 67.539062 74.035156 C 67.539062 74.035156 71.082031 80.011719 71.082031 81.550781 C 71.082031 83.074219 70.925781 82.929688 73.738281 82.800781 C 76.535156 82.65625 77.121094 81.550781 77.722656 81.132812 C 78.308594 80.714844 78.308594 79.738281 78.894531 78.90625 C 79.492188 78.074219 80.519531 74.882812 81.847656 73.761719 C 83.175781 72.644531 86.71875 71.808594 87.003906 69.871094 C 87.304688 67.917969 88.632812 66.394531 88.632812 66.394531 L 95 59.648438 L 94.832031 60.558594 L 94.675781 64.035156 L 96.601562 63.332031 L 96.445312 59.582031 L 95.769531 58.855469 L 95.859375 58.75 C 95.859375 58.75 95.417969 57.917969 94.832031 57.917969 C 94.246094 57.917969 90.703125 58.75 90.105469 58.605469 C 89.519531 58.464844 87.019531 51.796875 86.574219 51.523438 C 86.121094 51.238281 83.320312 46.652344 83.320312 46.652344 C 83.320312 46.652344 89.816406 54.441406 90.847656 57.5 C 91.445312 59.269531 93.699219 57.617188 95.535156 55.753906 L 96.015625 56.941406 L 97.1875 56.667969 L 97.042969 55.273438 L 98.371094 55.273438 L 98.371094 57.355469 L 97.929688 58.476562 L 97.773438 60.273438 L 98.957031 61.394531 L 99.542969 60.417969 L 101.457031 58.605469 L 103.671875 57.5 L 104.257812 58.605469 L 104.558594 60.144531 L 103.972656 61.808594 L 102.785156 62.785156 L 102.199219 65.285156 L 102.199219 66.535156 L 100.871094 65.703125 L 100.730469 63.058594 L 98.800781 63.203125 L 97.929688 65.558594 L 99.257812 67.511719 L 102.34375 67.929688 L 104.855469 65.558594 L 105.144531 60.988281 L 106.261719 59.503906 C 106.992188 61.378906 107.511719 63.332031 107.511719 65.15625 C 107.511719 67.148438 109.089844 64.140625 108.320312 58.058594 C 108.320312 58.046875 107.097656 43.59375 100.417969 36.902344 Z M 70.925781 42.890625 L 62.96875 42.617188 L 66.355469 39.832031 L 68.125 39.832031 L 70.925781 41.785156 L 70.925781 42.890625 M 80.664062 41.925781 L 80.664062 43.175781 L 77.277344 43.175781 L 77.566406 44.011719 L 75.507812 44.285156 L 75.351562 44.972656 L 73.878906 44.699219 L 71.222656 44.152344 L 71.667969 43.449219 L 72.109375 42.617188 L 73.59375 41.082031 L 74.179688 42.199219 L 76.394531 42.058594 L 77.566406 40.808594 L 82.148438 41.640625 L 80.664062 41.925781 M 80.949219 40.117188 L 79.191406 40.390625 L 78.894531 39.140625 L 81.105469 38.867188 L 81.40625 37.605469 L 83.019531 39.285156 L 80.949219 40.117188 M 89.519531 83.347656 L 88.476562 84.191406 L 88.621094 86.277344 L 89.949219 86.277344 L 89.949219 84.464844 L 91.132812 82.929688 L 91.132812 79.738281 L 90.390625 79.597656 L 89.519531 83.347656 M 79.636719 79.179688 C 79.636719 79.179688 78.59375 79.453125 79.777344 79.882812 C 80.949219 80.300781 85.675781 73.074219 85.675781 73.074219 L 81.691406 75.574219 L 79.636719 79.179688 M 71.601562 105.832031 L 70.714844 104.988281 L 68.957031 104.714844 L 68.660156 105.558594 L 66.300781 105.273438 L 66.144531 104.152344 L 64.375 104.152344 L 62.460938 105.273438 L 59.074219 105.273438 L 58.777344 104.441406 L 53.332031 103.867188 L 52.449219 104.714844 L 50.234375 104.152344 L 49.933594 102.199219 L 48.90625 102.042969 L 47.722656 104.152344 L 43.75 104.011719 C 44.464844 104.347656 50.402344 107.890625 59.519531 108.632812 C 71.601562 109.609375 77.355469 106.679688 77.355469 106.679688 L 76.914062 106.25 Z "/>
</g>
</g>
</svg>
